dist/img/notes-1.svg

<svg width="148" height="148" viewBox="0 0 148 148" fill="none" xmlns="http://www.w3.org/2000/svg">
<g filter="url(#filter0_dd)">
<path d="M54.3125 67.015V69.0625H56.1875V67.1875H58.0625V64.375C58.0625 62.8244 56.8006 61.5625 55.25 61.5625C54.7334 61.5625 54.3125 61.1425 54.3125 60.625V59.6875H55.25C55.7666 59.6875 56.1875 60.1075 56.1875 60.625V61.5625H58.0625V60.625C58.0625 59.4044 57.2759 58.3731 56.1875 57.985V55.9375H54.3125V57.8125H52.4375V60.625C52.4375 62.1756 53.6994 63.4375 55.25 63.4375C55.7666 63.4375 56.1875 63.8575 56.1875 64.375V65.3125H55.25C54.7334 65.3125 54.3125 64.8925 54.3125 64.375V63.4375H52.4375V64.375C52.4375 65.5956 53.2241 66.6269 54.3125 67.015Z" fill="white"/>
<path d="M71.1875 63.4375H73.0625V59.6875H74.9375V46.5625H73.0625V42.8125H71.1875V46.5625H69.3125V59.6875H71.1875V63.4375ZM71.1875 48.4375H73.0625V57.8125H71.1875V48.4375Z" fill="white"/>
<path d="M61.8125 50.3125H63.6875V48.4375H65.5625V42.8125H63.6875V40.9375H61.8125V42.8125H59.9375V48.4375H61.8125V50.3125ZM61.8125 44.6875H63.6875V46.5625H61.8125V44.6875Z" fill="white"/>
<path d="M101.188 44.6875V40.9375H99.3125V44.6875H97.4375V59.6875H99.3125V63.4375H101.188V59.6875H103.062V44.6875H101.188ZM101.188 57.8125H99.3125V46.5625H101.188V57.8125Z" fill="white"/>
<path d="M89.9375 59.6875H91.8125V55.9375H93.6875V48.4375H91.8125V44.6875H89.9375V48.4375H88.0625V55.9375H89.9375V59.6875ZM89.9375 50.3125H91.8125V54.0625H89.9375V50.3125Z" fill="white"/>
<path d="M80.5625 63.4375H82.4375V61.5625H84.3125V54.0625H82.4375V52.1875H80.5625V54.0625H78.6875V61.5625H80.5625V63.4375ZM80.5625 55.9375H82.4375V59.6875H80.5625V55.9375Z" fill="white"/>
<path d="M87.125 71.875H86.1875V76.6047C84.8853 76.7125 83.6178 77.0425 82.4375 77.5844V68.125C82.4375 66.5744 81.1756 65.3125 79.625 65.3125H65.1631C65.4172 64.4172 65.5625 63.4759 65.5625 62.5C65.5625 56.8141 60.9359 52.1875 55.25 52.1875C49.5641 52.1875 44.9375 56.8141 44.9375 62.5C44.9375 64.6994 45.635 66.7347 46.8125 68.4109V87.8125C46.8125 89.8806 48.4944 91.5625 50.5625 91.5625H58.0625V97.1875H54.3125V99.0625H74.9375V97.1875H71.1875V91.5625H76.5228C78.0969 96.0109 82.3541 99.0625 87.125 99.0625C93.0116 99.0625 97.8481 94.5156 98.3272 88.75H103.062V87.8125C103.062 79.0244 95.9131 71.875 87.125 71.875ZM86.1875 78.505V85.3178L82.4375 81.0316V79.7181C83.5906 79.0497 84.8619 78.6372 86.1875 78.505ZM79.625 67.1875C80.1416 67.1875 80.5625 67.6075 80.5625 68.125V84.0625H48.6875V70.4491C50.4716 71.9247 52.7591 72.8125 55.25 72.8125C59.2475 72.8125 62.7134 70.5212 64.4244 67.1875H79.625ZM55.25 54.0625C59.9019 54.0625 63.6875 57.8472 63.6875 62.5C63.6875 67.1528 59.9019 70.9375 55.25 70.9375C50.5981 70.9375 46.8125 67.1528 46.8125 62.5C46.8125 57.8472 50.5981 54.0625 55.25 54.0625ZM48.6875 87.8125V85.9375H80.5625V87.8125C80.5625 88.8466 79.7216 89.6875 78.6875 89.6875H50.5625C49.5284 89.6875 48.6875 88.8466 48.6875 87.8125ZM69.3125 97.1875H59.9375V91.5625H69.3125V97.1875ZM78.5384 91.5625H78.6875C80.7556 91.5625 82.4375 89.8806 82.4375 87.8125V83.8787L85.91 87.8472L80.6656 94.5897C79.7731 93.7422 79.0438 92.7184 78.5384 91.5625ZM87.125 97.1875C85.3203 97.1875 83.6047 96.6625 82.1441 95.7447L87.5834 88.75H96.4522C95.9806 93.4806 91.9784 97.1875 87.125 97.1875ZM88.0625 86.875V73.7809C95.0713 74.2441 100.692 79.8663 101.157 86.875H88.0625Z" fill="white"/>
<path d="M63.6875 70.9375H67.4375V72.8125H63.6875V70.9375Z" fill="white"/>
<path d="M69.3125 70.9375H76.8125V72.8125H69.3125V70.9375Z" fill="white"/>
<path d="M63.6875 74.6875H76.8125V76.5625H63.6875V74.6875Z" fill="white"/>
<path d="M63.6875 78.4375H65.5625V80.3125H63.6875V78.4375Z" fill="white"/>
<path d="M67.4375 78.4375H69.3125V80.3125H67.4375V78.4375Z" fill="white"/>
<path d="M71.1875 78.4375H76.8125V80.3125H71.1875V78.4375Z" fill="white"/>
</g>
<defs>
<filter id="filter0_dd" x="0.9375" y="0.9375" width="146.125" height="146.125" filterUnits="userSpaceOnUse" color-interpolation-filters="sRGB">
<feFlood flood-opacity="0" result="BackgroundImageFix"/>
<feColorMatrix in="SourceAlpha" type="matrix" values="0 0 0 0 0 0 0 0 0 0 0 0 0 0 0 0 0 0 127 0" result="hardAlpha"/>
<feOffset dy="4"/>
<feGaussianBlur stdDeviation="22"/>
<feComposite in2="hardAlpha" operator="out"/>
<feColorMatrix type="matrix" values="0 0 0 0 1 0 0 0 0 1 0 0 0 0 1 0 0 0 0.25 0"/>
<feBlend mode="normal" in2="BackgroundImageFix" result="effect1_dropShadow"/>
<feColorMatrix in="SourceAlpha" type="matrix" values="0 0 0 0 0 0 0 0 0 0 0 0 0 0 0 0 0 0 127 0" result="hardAlpha"/>
<feOffset dy="1"/>
<feGaussianBlur stdDeviation="6.5"/>
<feComposite in2="hardAlpha" operator="out"/>
<feColorMatrix type="matrix" values="0 0 0 0 1 0 0 0 0 1 0 0 0 0 1 0 0 0 0.55 0"/>
<feBlend mode="normal" in2="effect1_dropShadow" result="effect2_dropShadow"/>
<feBlend mode="normal" in="SourceGraphic" in2="effect2_dropShadow" result="shape"/>
</filter>
</defs>
</svg>

<svg width="148" height="148" viewBox="0 0 148 148" fill="none" xmlns="http://www.w3.org/2000/svg"><g filter="url(#filter0_dd)" fill="#fff"><path d="M54.313 67.015v2.047h1.874v-1.874h1.876v-2.813a2.816 2.816 0 00-2.813-2.813.938.938 0 01-.938-.937v-.938h.938c.517 0 .938.42.938.938v.938h1.874v-.938c0-1.22-.786-2.252-1.874-2.64v-2.047h-1.876v1.874h-1.874v2.813a2.816 2.816 0 002.812 2.813c.517 0 .938.42.938.937v.938h-.938a.938.938 0 01-.938-.938v-.938h-1.874v.938c0 1.22.786 2.252 1.874 2.64zm16.875-3.577h1.874v-3.75h1.876V46.562h-1.876v-3.75h-1.874v3.75h-1.876v13.126h1.876v3.75zm0-15h1.874v9.374h-1.874v-9.374zm-9.375 1.875h1.874v-1.876h1.876v-5.624h-1.876v-1.876h-1.874v1.876h-1.876v5.624h1.876v1.876zm0-5.626h1.874v1.876h-1.874v-1.876zm39.375.001v-3.75h-1.876v3.75h-1.874v15h1.874v3.75h1.876v-3.75h1.874v-15h-1.874zm0 13.124h-1.876v-11.25h1.876v11.25zm-11.25 1.876h1.874v-3.75h1.876v-7.5h-1.876v-3.75h-1.874v3.75h-1.876v7.5h1.876v3.75zm0-9.376h1.874v3.75h-1.874v-3.75zm-9.375 13.126h1.874v-1.876h1.876v-7.5h-1.876v-1.874h-1.874v1.874h-1.876v7.5h1.876v1.876zm0-7.5h1.874v3.75h-1.874v-3.75z"/><path d="M87.125 71.875h-.938v4.73c-1.302.108-2.57.438-3.75.98v-9.46a2.816 2.816 0 00-2.812-2.813H65.163c.254-.895.4-1.836.4-2.812 0-5.686-4.627-10.313-10.313-10.313-5.686 0-10.313 4.627-10.313 10.313 0 2.2.698 4.235 1.876 5.91v19.403a3.754 3.754 0 003.75 3.75h7.5v5.624h-3.75v1.876h20.624v-1.876h-3.75v-5.624h5.336c1.574 4.448 5.831 7.5 10.602 7.5 5.887 0 10.723-4.547 11.202-10.313h4.735v-.938c0-8.788-7.149-15.937-15.937-15.937zm-.938 6.63v6.813l-3.75-4.286v-1.314a9.299 9.299 0 013.75-1.213zm-6.562-11.317c.517 0 .938.42.938.937v15.938H48.686V70.448a10.265 10.265 0 006.563 2.364c3.998 0 7.463-2.292 9.174-5.626h15.201zM55.25 54.062c4.652 0 8.438 3.785 8.438 8.438 0 4.653-3.786 8.438-8.438 8.438-4.652 0-8.438-3.785-8.438-8.438 0-4.653 3.786-8.438 8.438-8.438zm-6.563 33.75v-1.874h31.876v1.874a1.877 1.877 0 01-1.876 1.876H50.564a1.877 1.877 0 01-1.876-1.876zm20.626 9.376h-9.376v-5.626h9.376v5.626zm9.225-5.626h.15a3.754 3.754 0 003.75-3.75V83.88l3.472 3.968-5.244 6.743a9.328 9.328 0 01-2.128-3.028zm8.587 5.626a9.354 9.354 0 01-4.98-1.443l5.438-6.995h8.87c-.472 4.73-4.475 8.438-9.328 8.438zm.938-10.313V73.781c7.008.463 12.629 6.085 13.094 13.094H88.063z"/><path d="M63.688 70.938h3.75v1.874h-3.75v-1.874zm5.625 0h7.5v1.874h-7.5v-1.874zm-5.625 3.75h13.124v1.874H63.688v-1.874zm0 3.75h1.874v1.874h-1.874v-1.874zm3.75 0h1.874v1.874h-1.874v-1.874zm3.75 0h5.624v1.874h-5.624v-1.874z"/></g><defs><filter id="filter0_dd" x=".938" y=".938" width="146.125" height="146.125" filterUnits="userSpaceOnUse" color-interpolation-filters="sRGB"><feFlood flood-opacity="0" result="BackgroundImageFix"/><feColorMatrix in="SourceAlpha" values="0 0 0 0 0 0 0 0 0 0 0 0 0 0 0 0 0 0 127 0" result="hardAlpha"/><feOffset dy="4"/><feGaussianBlur stdDeviation="22"/><feComposite in2="hardAlpha" operator="out"/><feColorMatrix values="0 0 0 0 1 0 0 0 0 1 0 0 0 0 1 0 0 0 0.25 0"/><feBlend in2="BackgroundImageFix" result="effect1_dropShadow"/><feColorMatrix in="SourceAlpha" values="0 0 0 0 0 0 0 0 0 0 0 0 0 0 0 0 0 0 127 0" result="hardAlpha"/><feOffset dy="1"/><feGaussianBlur stdDeviation="6.5"/><feComposite in2="hardAlpha" operator="out"/><feColorMatrix values="0 0 0 0 1 0 0 0 0 1 0 0 0 0 1 0 0 0 0.55 0"/><feBlend in2="effect1_dropShadow" result="effect2_dropShadow"/><feBlend in="SourceGraphic" in2="effect2_dropShadow" result="shape"/></filter></defs></svg>
